Newaita-dark/.places-blue/22/folder-temp.svg

<svg xmlns="http://www.w3.org/2000/svg" xmlns:xlink="http://www.w3.org/1999/xlink" width="22px" height="22px" viewBox="0 0 22 22" version="1.1">
<defs>
<linearGradient id="linear0" gradientUnits="userSpaceOnUse" x1="254" y1="233.5" x2="254" y2="254.667007" gradientTransform="matrix(0.0429722,0,0,0.0429722,0,9.239313)">
<stop offset="0" style="stop-color:rgb(0%,0%,0%);stop-opacity:0.275;"/>
<stop offset="1" style="stop-color:rgb(0%,0%,0%);stop-opacity:0;"/>
</linearGradient>
<radialGradient id="radial0" gradientUnits="userSpaceOnUse" cx="450.908997" cy="189.578995" fx="450.908997" fy="189.578995" r="21.167" gradientTransform="matrix(0,-0.0537144,-0.09669,0,37.204064,43.721563)">
<stop offset="0" style="stop-color:rgb(0%,0%,0%);stop-opacity:0.314;"/>
<stop offset="0.222" style="stop-color:rgb(0%,0%,0%);stop-opacity:0.275;"/>
<stop offset="1" style="stop-color:rgb(0%,0%,0%);stop-opacity:0;"/>
</radialGradient>
<radialGradient id="radial1" gradientUnits="userSpaceOnUse" cx="450.908997" cy="189.578995" fx="450.908997" fy="189.578995" r="21.167" gradientTransform="matrix(0,0.0537144,0.09669,0,-15.373875,-5.175156)">
<stop offset="0" style="stop-color:rgb(0%,0%,0%);stop-opacity:0.314;"/>
<stop offset="0.222" style="stop-color:rgb(0%,0%,0%);stop-opacity:0.275;"/>
<stop offset="1" style="stop-color:rgb(0%,0%,0%);stop-opacity:0;"/>
</radialGradient>
<radialGradient id="radial2" gradientUnits="userSpaceOnUse" cx="450.908997" cy="189.578995" fx="450.908997" fy="189.578995" r="21.167" gradientTransform="matrix(0,-0.0537144,0.09669,0,-15.373875,43.721563)">
<stop offset="0" style="stop-color:rgb(0%,0%,0%);stop-opacity:0.314;"/>
<stop offset="0.222" style="stop-color:rgb(0%,0%,0%);stop-opacity:0.275;"/>
<stop offset="1" style="stop-color:rgb(0%,0%,0%);stop-opacity:0;"/>
</radialGradient>
<radialGradient id="radial3" gradientUnits="userSpaceOnUse" cx="450.908997" cy="189.578995" fx="450.908997" fy="189.578995" r="21.167" gradientTransform="matrix(0,0.0537144,-0.09669,0,37.204064,-5.175156)">
<stop offset="0" style="stop-color:rgb(0%,0%,0%);stop-opacity:0.314;"/>
<stop offset="0.222" style="stop-color:rgb(0%,0%,0%);stop-opacity:0.275;"/>
<stop offset="1" style="stop-color:rgb(0%,0%,0%);stop-opacity:0;"/>
</radialGradient>
<linearGradient id="linear1" gradientUnits="userSpaceOnUse" x1="254" y1="-147.5" x2="254" y2="-31.083" gradientTransform="matrix(0.0429722,0,0,0.0429722,0,9.239313)">
<stop offset="0" style="stop-color:rgb(64.313728%,64.313728%,64.313728%);stop-opacity:0;"/>
<stop offset="1" style="stop-color:rgb(100%,100%,100%);stop-opacity:0.196;"/>
</linearGradient>
<linearGradient id="linear2" gradientUnits="userSpaceOnUse" x1="254" y1="233.5" x2="254" y2="-105.167" gradientTransform="matrix(0.0429722,0,0,0.0429722,0,9.239313)">
<stop offset="0" style="stop-color:rgb(34.509805%,34.509805%,34.509805%);stop-opacity:0;"/>
<stop offset="1" style="stop-color:rgb(98.039216%,98.039216%,98.039216%);stop-opacity:0.196;"/>
</linearGradient>
<linearGradient id="linear3" gradientUnits="userSpaceOnUse" x1="254" y1="-147.5" x2="254" y2="233.5" gradientTransform="matrix(0.0429722,0,0,0.0429722,0,9.239313)">
<stop offset="0" style="stop-color:rgb(64.313728%,64.313728%,64.313728%);stop-opacity:0;"/>
<stop offset="1" style="stop-color:rgb(100%,100%,100%);stop-opacity:0.196;"/>
</linearGradient>
</defs>
<g id="surface1">
<path style=" stroke:none;fill-rule:nonzero;fill:url(#linear0);" d="M 2.730469 19.273438 L 19.101562 19.273438 L 19.101562 20.183594 L 2.726562 20.183594 Z M 2.730469 19.273438 "/>
<path style=" stroke:none;fill-rule:nonzero;fill:url(#radial0);" d="M 19.101562 19.273438 L 20.921875 19.273438 L 20.921875 18.363281 L 19.101562 18.363281 Z M 19.101562 19.273438 "/>
<path style=" stroke:none;fill-rule:nonzero;fill:url(#radial1);" d="M 2.730469 19.273438 L 0.910156 19.273438 L 0.910156 20.183594 L 2.726562 20.183594 Z M 2.730469 19.273438 "/>
<path style=" stroke:none;fill-rule:nonzero;fill:url(#radial2);" d="M 2.730469 19.273438 L 0.910156 19.273438 L 0.910156 18.363281 L 2.726562 18.363281 Z M 2.730469 19.273438 "/>
<path style=" stroke:none;fill-rule:nonzero;fill:url(#radial3);" d="M 19.101562 19.273438 L 20.921875 19.273438 L 20.921875 20.183594 L 19.101562 20.183594 Z M 19.101562 19.273438 "/>
<path style=" stroke:none;fill-rule:nonzero;fill:rgb(11.764706%,53.333336%,89.803922%);fill-opacity:1;" d="M 5.003906 2.902344 L 19.78125 2.902344 C 20.023438 2.898438 20.257812 2.996094 20.425781 3.167969 C 20.597656 3.335938 20.691406 3.570312 20.691406 3.8125 L 20.691406 7.222656 C 20.691406 7.722656 20.285156 8.132812 19.78125 8.128906 L 5.003906 8.128906 C 4.5 8.128906 4.09375 7.722656 4.09375 7.222656 L 4.09375 3.8125 C 4.09375 3.308594 4.5 2.898438 5.003906 2.898438 Z M 5.003906 2.902344 "/>
<path style=" stroke:none;fill-rule:nonzero;fill:url(#linear1);" d="M 5.003906 2.902344 L 19.78125 2.902344 C 20.023438 2.898438 20.257812 2.996094 20.425781 3.167969 C 20.597656 3.335938 20.691406 3.570312 20.691406 3.8125 L 20.691406 7.222656 C 20.691406 7.722656 20.285156 8.132812 19.78125 8.128906 L 5.003906 8.128906 C 4.5 8.128906 4.09375 7.722656 4.09375 7.222656 L 4.09375 3.8125 C 4.09375 3.308594 4.5 2.898438 5.003906 2.898438 Z M 5.003906 2.902344 "/>
<path style=" stroke:none;fill-rule:nonzero;fill:rgb(90.196079%,90.196079%,90.196079%);fill-opacity:0.588;" d="M 5.003906 2.902344 C 4.761719 2.898438 4.53125 2.996094 4.359375 3.167969 C 4.1875 3.335938 4.09375 3.570312 4.09375 3.8125 L 4.09375 3.921875 C 4.09375 3.683594 4.1875 3.449219 4.359375 3.28125 C 4.53125 3.109375 4.761719 3.015625 5.003906 3.015625 L 19.78125 3.015625 C 20.023438 3.015625 20.257812 3.109375 20.425781 3.28125 C 20.597656 3.449219 20.695312 3.683594 20.691406 3.921875 L 20.691406 3.8125 C 20.695312 3.570312 20.597656 3.335938 20.425781 3.167969 C 20.257812 2.996094 20.023438 2.898438 19.78125 2.898438 Z M 5.003906 2.902344 "/>
<path style=" stroke:none;fill-rule:nonzero;fill:rgb(12.941177%,12.941177%,12.941177%);fill-opacity:1;" d="M 5.003906 2.835938 C 4.464844 2.835938 4.027344 3.273438 4.027344 3.8125 L 4.027344 7.222656 C 4.027344 7.480469 4.132812 7.726562 4.3125 7.910156 C 4.496094 8.09375 4.746094 8.195312 5.003906 8.195312 L 19.78125 8.195312 C 20.042969 8.195312 20.289062 8.09375 20.472656 7.910156 C 20.65625 7.726562 20.757812 7.480469 20.757812 7.222656 L 20.757812 3.8125 C 20.757812 3.273438 20.320312 2.835938 19.78125 2.835938 Z M 5.003906 2.964844 L 19.78125 2.964844 C 20.007812 2.964844 20.222656 3.050781 20.382812 3.210938 C 20.539062 3.371094 20.628906 3.585938 20.628906 3.808594 L 20.628906 7.222656 C 20.628906 7.445312 20.539062 7.660156 20.382812 7.820312 C 20.222656 7.976562 20.007812 8.066406 19.78125 8.066406 L 5.003906 8.066406 C 4.777344 8.066406 4.5625 7.976562 4.40625 7.820312 C 4.246094 7.660156 4.15625 7.445312 4.15625 7.222656 L 4.15625 3.8125 C 4.15625 3.585938 4.246094 3.371094 4.402344 3.210938 C 4.5625 3.054688 4.777344 2.964844 5.003906 2.964844 Z M 5.003906 2.964844 "/>
<path style=" stroke:none;fill-rule:nonzero;fill:rgb(25.882354%,64.705884%,96.078432%);fill-opacity:1;" d="M 1.820312 4.71875 C 1.578125 4.71875 1.347656 4.816406 1.175781 4.984375 C 1.003906 5.15625 0.910156 5.386719 0.910156 5.628906 L 0.910156 18.363281 C 0.910156 18.605469 1.003906 18.835938 1.175781 19.007812 C 1.347656 19.175781 1.578125 19.273438 1.820312 19.273438 L 20.011719 19.273438 C 20.253906 19.273438 20.484375 19.175781 20.65625 19.007812 C 20.824219 18.835938 20.921875 18.605469 20.921875 18.363281 L 20.921875 6.992188 L 8.640625 6.992188 C 8.398438 6.992188 8.167969 6.898438 7.996094 6.726562 C 7.828125 6.558594 7.730469 6.324219 7.730469 6.085938 L 7.730469 4.71875 Z M 1.820312 4.71875 "/>
<path style=" stroke:none;fill-rule:nonzero;fill:url(#linear2);" d="M 1.820312 4.71875 C 1.578125 4.71875 1.347656 4.816406 1.175781 4.984375 C 1.003906 5.15625 0.910156 5.386719 0.910156 5.628906 L 0.910156 18.363281 C 0.910156 18.605469 1.003906 18.835938 1.175781 19.007812 C 1.347656 19.175781 1.578125 19.273438 1.820312 19.273438 L 20.011719 19.273438 C 20.253906 19.273438 20.484375 19.175781 20.65625 19.007812 C 20.824219 18.835938 20.921875 18.605469 20.921875 18.363281 L 20.921875 6.992188 L 8.640625 6.992188 C 8.398438 6.992188 8.167969 6.898438 7.996094 6.726562 C 7.828125 6.558594 7.730469 6.324219 7.730469 6.085938 L 7.730469 4.71875 Z M 1.820312 4.71875 "/>
<path style=" stroke:none;fill-rule:nonzero;fill:rgb(0%,0%,0%);fill-opacity:0.196;" d="M 1.820312 19.273438 C 1.578125 19.273438 1.347656 19.175781 1.175781 19.007812 C 1.003906 18.835938 0.910156 18.605469 0.910156 18.363281 L 0.910156 18.25 C 0.910156 18.492188 1.003906 18.722656 1.175781 18.894531 C 1.347656 19.066406 1.578125 19.160156 1.820312 19.160156 L 20.011719 19.160156 C 20.253906 19.160156 20.484375 19.066406 20.65625 18.894531 C 20.824219 18.722656 20.921875 18.492188 20.921875 18.25 L 20.921875 18.363281 C 20.921875 18.605469 20.824219 18.835938 20.65625 19.007812 C 20.484375 19.175781 20.253906 19.273438 20.011719 19.273438 Z M 1.820312 19.273438 "/>
<path style=" stroke:none;fill-rule:nonzero;fill:rgb(90.196079%,90.196079%,90.196079%);fill-opacity:0.937;" d="M 1.820312 4.71875 C 1.578125 4.71875 1.347656 4.816406 1.175781 4.984375 C 1.003906 5.15625 0.910156 5.386719 0.910156 5.628906 L 0.910156 5.742188 C 0.910156 5.5 1.003906 5.269531 1.175781 5.097656 C 1.347656 4.929688 1.578125 4.832031 1.820312 4.832031 L 7.730469 4.832031 L 7.730469 4.71875 Z M 8.585938 7.050781 C 8.34375 7.050781 8.109375 6.957031 7.941406 6.785156 C 7.769531 6.613281 7.675781 6.382812 7.675781 6.140625 L 7.675781 6.027344 C 7.675781 6.269531 7.769531 6.5 7.941406 6.671875 C 8.113281 6.84375 8.34375 6.9375 8.585938 6.9375 L 20.921875 6.9375 L 20.921875 7.050781 Z M 8.585938 7.050781 "/>
<path style=" stroke:none;fill-rule:nonzero;fill:rgb(12.941177%,12.941177%,12.941177%);fill-opacity:1;" d="M 1.820312 4.65625 C 1.5625 4.65625 1.3125 4.757812 1.128906 4.941406 C 0.949219 5.121094 0.84375 5.371094 0.84375 5.628906 L 0.84375 18.363281 C 0.84375 18.621094 0.949219 18.871094 1.128906 19.050781 C 1.3125 19.234375 1.5625 19.335938 1.820312 19.335938 L 20.011719 19.335938 C 20.269531 19.335938 20.515625 19.234375 20.699219 19.050781 C 20.882812 18.871094 20.984375 18.621094 20.984375 18.363281 L 20.984375 6.863281 L 8.640625 6.863281 C 8.417969 6.867188 8.203125 6.777344 8.042969 6.617188 C 7.882812 6.460938 7.796875 6.242188 7.796875 6.019531 L 7.796875 4.65625 Z M 1.820312 4.785156 L 7.667969 4.785156 L 7.667969 6.019531 C 7.667969 6.277344 7.769531 6.527344 7.953125 6.707031 C 8.136719 6.890625 8.382812 6.992188 8.640625 6.992188 L 20.855469 6.992188 L 20.855469 18.363281 C 20.855469 18.589844 20.769531 18.804688 20.609375 18.960938 C 20.449219 19.121094 20.234375 19.210938 20.011719 19.207031 L 1.820312 19.207031 C 1.59375 19.210938 1.378906 19.121094 1.21875 18.960938 C 1.0625 18.804688 0.972656 18.589844 0.972656 18.363281 L 0.972656 5.628906 C 0.972656 5.40625 1.0625 5.1875 1.21875 5.03125 C 1.378906 4.871094 1.59375 4.785156 1.820312 4.785156 Z M 1.820312 4.785156 "/>
<path style=" stroke:none;fill-rule:nonzero;fill:rgb(11.764706%,53.333336%,89.803922%);fill-opacity:1;" d="M 8.1875 8.8125 C 8.066406 8.8125 7.949219 8.859375 7.863281 8.945312 C 7.777344 9.03125 7.730469 9.148438 7.730469 9.269531 L 10.460938 12.453125 L 7.730469 15.636719 C 7.730469 15.886719 7.933594 16.089844 8.1875 16.089844 L 13.644531 16.089844 C 13.894531 16.089844 14.261719 15.824219 14.097656 15.636719 L 11.371094 12.453125 L 14.097656 9.269531 C 14.261719 9.074219 13.894531 8.8125 13.644531 8.8125 Z M 8.1875 8.8125 "/>
<path style=" stroke:none;fill-rule:nonzero;fill:url(#linear3);" d="M 8.1875 8.8125 C 8.066406 8.8125 7.949219 8.859375 7.863281 8.945312 C 7.777344 9.03125 7.730469 9.148438 7.730469 9.269531 L 10.460938 12.453125 L 7.730469 15.636719 C 7.730469 15.886719 7.933594 16.089844 8.1875 16.089844 L 13.644531 16.089844 C 13.894531 16.089844 14.261719 15.824219 14.097656 15.636719 L 11.371094 12.453125 L 14.097656 9.269531 C 14.261719 9.074219 13.894531 8.8125 13.644531 8.8125 Z M 8.1875 8.8125 "/>
<path style=" stroke:none;fill-rule:nonzero;fill:rgb(12.941177%,12.941177%,12.941177%);fill-opacity:1;" d="M 8.1875 8.75 C 7.898438 8.75 7.667969 8.980469 7.667969 9.265625 L 7.667969 9.292969 L 10.375 12.453125 L 7.667969 15.609375 L 7.667969 15.636719 C 7.667969 15.921875 7.898438 16.152344 8.1875 16.152344 L 13.644531 16.152344 C 13.792969 16.152344 13.953125 16.082031 14.070312 15.984375 C 14.128906 15.933594 14.175781 15.875 14.195312 15.804688 C 14.214844 15.730469 14.199219 15.648438 14.148438 15.59375 L 11.457031 12.453125 L 14.148438 9.308594 C 14.199219 9.25 14.214844 9.171875 14.195312 9.097656 C 14.175781 9.027344 14.128906 8.972656 14.070312 8.921875 C 13.953125 8.820312 13.792969 8.75 13.644531 8.75 Z M 8.1875 8.878906 L 13.644531 8.878906 C 13.746094 8.878906 13.894531 8.9375 13.984375 9.015625 C 14.023438 9.046875 14.054688 9.089844 14.070312 9.136719 C 14.082031 9.167969 14.078125 9.191406 14.050781 9.226562 L 11.285156 12.453125 L 14.050781 15.675781 C 14.078125 15.710938 14.082031 15.734375 14.070312 15.769531 C 14.054688 15.8125 14.023438 15.855469 13.984375 15.886719 C 13.894531 15.964844 13.746094 16.023438 13.644531 16.023438 L 8.1875 16.023438 C 7.980469 16.027344 7.808594 15.863281 7.800781 15.652344 L 10.542969 12.453125 L 7.800781 9.25 C 7.808594 9.042969 7.980469 8.875 8.1875 8.878906 Z M 8.1875 8.878906 "/>
</g>
</svg>

<svg xmlns="http://www.w3.org/2000/svg" width="22pt" height="22pt" viewBox="0 0 22 22"><defs><linearGradient id="a" gradientUnits="userSpaceOnUse" x1="254" y1="233.5" x2="254" y2="254.667" gradientTransform="matrix(.04297 0 0 .04297 0 9.24)"><stop offset="0" stop-opacity=".275"/><stop offset="1" stop-opacity="0"/></linearGradient><radialGradient id="b" gradientUnits="userSpaceOnUse" cx="450.909" cy="189.579" fx="450.909" fy="189.579" r="21.167" gradientTransform="matrix(0 -.05372 -.09669 0 37.204 43.722)"><stop offset="0" stop-opacity=".314"/><stop offset=".222" stop-opacity=".275"/><stop offset="1" stop-opacity="0"/></radialGradient><radialGradient id="c" gradientUnits="userSpaceOnUse" cx="450.909" cy="189.579" fx="450.909" fy="189.579" r="21.167" gradientTransform="matrix(0 .05372 .09669 0 -15.374 -5.175)"><stop offset="0" stop-opacity=".314"/><stop offset=".222" stop-opacity=".275"/><stop offset="1" stop-opacity="0"/></radialGradient><radialGradient id="d" gradientUnits="userSpaceOnUse" cx="450.909" cy="189.579" fx="450.909" fy="189.579" r="21.167" gradientTransform="matrix(0 -.05372 .09669 0 -15.374 43.722)"><stop offset="0" stop-opacity=".314"/><stop offset=".222" stop-opacity=".275"/><stop offset="1" stop-opacity="0"/></radialGradient><radialGradient id="e" gradientUnits="userSpaceOnUse" cx="450.909" cy="189.579" fx="450.909" fy="189.579" r="21.167" gradientTransform="matrix(0 .05372 -.09669 0 37.204 -5.175)"><stop offset="0" stop-opacity=".314"/><stop offset=".222" stop-opacity=".275"/><stop offset="1" stop-opacity="0"/></radialGradient><linearGradient id="f" gradientUnits="userSpaceOnUse" x1="254" y1="-147.5" x2="254" y2="-31.083" gradientTransform="matrix(.04297 0 0 .04297 0 9.24)"><stop offset="0" stop-color="#a4a4a4" stop-opacity="0"/><stop offset="1" stop-color="#fff" stop-opacity=".196"/></linearGradient><linearGradient id="g" gradientUnits="userSpaceOnUse" x1="254" y1="233.5" x2="254" y2="-105.167" gradientTransform="matrix(.04297 0 0 .04297 0 9.24)"><stop offset="0" stop-color="#585858" stop-opacity="0"/><stop offset="1" stop-color="#fafafa" stop-opacity=".196"/></linearGradient><linearGradient id="h" gradientUnits="userSpaceOnUse" x1="254" y1="-147.5" x2="254" y2="233.5" gradientTransform="matrix(.04297 0 0 .04297 0 9.24)"><stop offset="0" stop-color="#a4a4a4" stop-opacity="0"/><stop offset="1" stop-color="#fff" stop-opacity=".196"/></linearGradient></defs><path d="M2.73 19.273h16.372v.91H2.73zm0 0" fill="url(#a)"/><path d="M19.102 19.273h1.82v-.91h-1.82zm0 0" fill="url(#b)"/><path d="M2.73 19.273H.91v.91h1.82zm0 0" fill="url(#c)"/><path d="M2.73 19.273H.91v-.91h1.82zm0 0" fill="url(#d)"/><path d="M19.102 19.273h1.82v.91h-1.82zm0 0" fill="url(#e)"/><path d="M5.004 2.902h14.781c.5 0 .906.407.906.907v3.414c0 .5-.406.906-.906.906H5.004a.908.908 0 0 1-.91-.906V3.809c0-.5.406-.907.91-.907zm0 0" fill="#1e88e5"/><path d="M5.004 2.902h14.781c.5 0 .906.407.906.907v3.414c0 .5-.406.906-.906.906H5.004a.908.908 0 0 1-.91-.906V3.809c0-.5.406-.907.91-.907zm0 0" fill="url(#f)"/><path d="M5.004 2.902a.905.905 0 0 0-.91.907v.117c0-.504.406-.91.91-.91h14.781c.504 0 .906.406.906.91v-.117a.902.902 0 0 0-.906-.907zm0 0" fill="#e6e6e6" fill-opacity=".588"/><path d="M5.004 2.836a.976.976 0 0 0-.977.973v3.414c0 .535.438.972.977.972h14.781a.975.975 0 0 0 .973-.972V3.809a.975.975 0 0 0-.973-.973zm0 .129h14.781a.84.84 0 0 1 .844.844v3.414a.84.84 0 0 1-.844.843H5.004a.844.844 0 0 1-.848-.843V3.809c0-.47.38-.844.848-.844zm0 0" fill="#212121"/><path d="M1.82 4.719a.909.909 0 0 0-.91.91v12.734c0 .504.406.91.91.91h18.192c.504 0 .91-.406.91-.91V6.993H8.64a.905.905 0 0 1-.91-.907V4.719zm0 0" fill="#42a5f5"/><path d="M1.82 4.719a.909.909 0 0 0-.91.91v12.734c0 .504.406.91.91.91h18.192c.504 0 .91-.406.91-.91V6.993H8.64a.905.905 0 0 1-.91-.907V4.719zm0 0" fill="url(#g)"/><path d="M1.82 19.273a.909.909 0 0 1-.91-.91v-.113c0 .504.406.91.91.91h18.192c.504 0 .91-.406.91-.91v.113c0 .504-.406.91-.91.91zm0 0" fill-opacity=".196"/><path d="M1.82 4.719a.909.909 0 0 0-.91.91v.113c0-.504.406-.91.91-.91h5.91v-.113zm0 0M8.586 7.05a.909.909 0 0 1-.91-.91v-.113c0 .504.406.91.91.91h12.336v.114zm0 0" fill="#e6e6e6" fill-opacity=".937"/><path d="M1.82 4.656a.974.974 0 0 0-.976.973v12.734c0 .54.437.973.976.973h18.192a.97.97 0 0 0 .972-.973v-11.5H8.641a.84.84 0 0 1-.844-.843V4.656zm0 .13h5.848V6.02c0 .539.434.972.973.972h12.214v11.371a.84.84 0 0 1-.843.844H1.82a.844.844 0 0 1-.847-.844V5.63c0-.469.379-.844.847-.844zm0 0" fill="#212121"/><path d="M8.188 8.813a.455.455 0 0 0-.458.457l2.73 3.183-2.73 3.184c0 .25.204.453.457.453h5.458c.25 0 .617-.262.453-.453l-2.727-3.184 2.727-3.183c.164-.192-.203-.457-.453-.457zm0 0" fill="#1e88e5"/><path d="M8.188 8.813a.455.455 0 0 0-.458.457l2.73 3.183-2.73 3.184c0 .25.204.453.457.453h5.458c.25 0 .617-.262.453-.453l-2.727-3.184 2.727-3.183c.164-.192-.203-.457-.453-.457zm0 0" fill="url(#h)"/><path d="M8.188 8.75c-.29 0-.52.23-.52.52v.023l2.707 3.16-2.707 3.156v.028c0 .285.23.515.52.515h5.457c.148 0 .308-.07.425-.168a.407.407 0 0 0 .125-.18.234.234 0 0 0-.047-.21l-2.695-3.14 2.695-3.145a.234.234 0 0 0 .047-.211.375.375 0 0 0-.125-.176.683.683 0 0 0-.425-.172zm0 .129h5.457c.101 0 .25.059.34.137a.325.325 0 0 1 .085.117c.012.035.008.058-.02.094l-2.765 3.226 2.766 3.223c.027.035.031.058.02.094a.271.271 0 0 1-.087.117.596.596 0 0 1-.34.136H8.188a.382.382 0 0 1-.386-.37l2.746-3.2L7.8 9.25a.382.382 0 0 1 .386-.371zm0 0" fill="#212121"/></svg>
